X: 1
T: Lament for Julie Smith
C: Ishmael (2021-06-16)
S: Bruce Sagan's "scanfolk" session archive
F: https://app.box.com/s/u6iiren0igvsukrhdducy7orq72jayq8/file/871108195194
R: lament
Z: 2021 John Chambers <jc:trillian.mit.edu>
M: 3/4
L: 1/16
Q: 1/4=88
K: G
D2B2A2 |:\
"G"G6 A2 "D"BABc | "G"d8 g2f2 | "C"e6 d2 c'2b2 | "D"a2f2 d4 "G"d3B |
"C"c3 d2 c2B2 | "Am"A4 B4 c4 | "D"d2D2 c4 "G"B4 |1 "D"A6 D2 B2A2 :|2 "D"A6 D2 G2A2 ||
|:\
"G"B4 D4 GAB2 | "C"c4 E4 ABc2 | "G"d4 G4 cBcd | "C"e6 f2 g2a2 |
"Em"b2g2e2 "Bm"B2c2d2 | "D"A4 D4 FGA2 | "G"G4 D4 "D"B,CD2 |1 G,6 D2 "D"EFGA :|2 "G"HG,6 |]
%%text In memory of Julie Smith, 1925-2021
